X:789
T:Mary of The Witching Eyes
C:Joe Buchanan's Scottish Tome - Page 537.3
I:537 3
Z:Carl Allison
R:Slow Air
L:1/4
M:3/4
K:A
"E7"E2 E | c3 | c2 B | "A"A3 | "A"c2 d | e3 | "E7"B2 A | "A"B c2 | 
"A7"E2 E | "D"F2 "A"E | "D"F2 A | "Bdim"B2 d | "A"c2 c | "Bm"B2 "A"A | "Bm"F3 | "A"A3 | 
"A"E2 E | "E7"c2 B | "F#m"A3 | "E7"B2 c | e2 d | c2 B | "A"A2 G | "D"F2 "A"E | 
"A"A2 G | "D"F2 "A"E | "D"E2 F | "Bm"A2 "Bdim"d | "A"c2 c | "Bm"B2 A | F3 | "A"A3 :|

